X:92
T:Morgan's Maggott. ThoH.092
Q:3/8=100
M:9/8
L:1/8
B:Thompson's Compleat Collection of 120 Favourite Hornpipes.
Z:Village Music Project, Simon Wilson 2016
O:England.
K:D
D2dc2B AFD|dcBc2de3|f2dc2d ecA|Bdc BA^GA3:|
|:F2a agfg2b|E2g gfef2a|b2B BcBc2d|Bgf edcd3:|

